X: 2
M: C|
L: 1/8
K: D
V: 1
|:\
e2 (3(cde) A2df | edcB ceA2 |
e2ce f^gaf | edcB A4 |\
V: 2 clef=bass middle=d
|:\
d4 f4 | g2e2 c2A2 | c2z2 c2A2 | d2A2 D4 ::\
d4 f4 | g2e2 c2A2 | c2z2 c2A2 | d2A2 D4 :|

